custom_files/u168.svg

<svg width="19" height="19" viewBox="-237 240 19 19" xmlns="http://www.w3.org/2000/svg"><path d="M-227.5 240c5.32 0 9.5 4.18 9.5 9.5s-4.18 9.5-9.5 9.5-9.5-4.18-9.5-9.5 4.18-9.5 9.5-9.5z" fill="#aaa5a5"/><path d="M-227.5 240.5c5.04 0 9 3.96 9 9s-3.96 9-9 9-9-3.96-9-9 3.96-9 9-9z" stroke="#797979" fill="none"/></svg>

﻿<?xml version="1.0" encoding="utf-8"?>
<svg version="1.1" xmlns:xlink="http://www.w3.org/1999/xlink" width="19px" height="19px" viewBox="-237 240  19 19" xmlns="http://www.w3.org/2000/svg">
  <path d="M -227.5 240  C -222.18 240  -218 244.18  -218 249.5  C -218 254.82  -222.18 259  -227.5 259  C -232.82 259  -237 254.82  -237 249.5  C -237 244.18  -232.82 240  -227.5 240  Z " fill-rule="nonzero" fill="#aaa5a5" stroke="none" />
  <path d="M -227.5 240.5  C -222.46 240.5  -218.5 244.46  -218.5 249.5  C -218.5 254.54  -222.46 258.5  -227.5 258.5  C -232.54 258.5  -236.5 254.54  -236.5 249.5  C -236.5 244.46  -232.54 240.5  -227.5 240.5  Z " stroke-width="1" stroke="#797979" fill="none" />
</svg>
